X:117
T:Untitled.#15. JBs.117
S:Jas.Blackshaw MS, 1837, N.Shropshire
A:North Shropshire
Z:T. Weatherall 2006
M:4/4
L:1/8
Q:1/2=100
R:Air
K:Bb
f>f|b4f3d|B2z2zBcd|e4d4|c2c>c c2f2|!
b4 f2d2|câ€™4a2f2|b3câ€™/b/ agfe|f2f>f f2:|!
f>f|f4aaff|b4dâ€™dâ€™bb|eâ€™eâ€™dâ€™dâ€™ câ€™câ€™bb|aagg ffee|!
d4fedc|B2g2f2e2|d4fedc|B2b>bb2z||!
d|d3c BBcd|ez cz A2z2|B4c2d2|e_efg c2z2|!
d3c BBcd|ez cz A2z2|B3cd2c2|B2B>BB2|]

